X:1
T:Benedictus - Caldara
T:James Gibb editions
T:#
%%score { 1 | 2 } 3 { ( 4 5 ) | 6 }
L:1/8
Q:1/4=96
M:3/4
K:F
V:1 treble nm="Soprano I" snm="S"
V:2 treble 
V:3 treble-8 nm="Tenor" snm="T"
V:4 treble nm="Midi_7"
V:5 treble 
V:6 bass 
V:1
"^Benedictus""^Antonio Caldara\n(c.1670-1736)""^andante" z2 A2 c2 | B2 A2 G2 | A2 A2 z2 | z6 | %4
w: Be- ne-|di- ctus qui|ve- nit,||
 z2 A2 c2 | B2 A2 G2 | A2 A2 z2 | z2 z2 B2 | (BA) A2 z2 |[M:3/4] z2 z2 A2 | d3 d G2 | c4 =B2 | %12
w: be- ne-|di- ctus qui|ve- nit,|qui|ve\- * nit|in|no- mi- ne|Do- mi-|
 c4 z2 | z6 | z6 | z6 | z2 z2 G2 | (AGABcA | F2 F2 F2 | (BABcdB | G2) G2 G2 | c2 B2 A2 | B2 A2 G2 | %23
w: ni!||||qui|ve\- * * * * *|* nit, qui|ve\- * * * * *|* nit, qui|ve- nit, qui|ve- nit in|
 AGABAB | AGABAB | _AGABAB | G2 =AB c2) | dB G3 F | F4 z2 | z6 | z6 | z6 | z6 |] %33
w: no\- * * * * *||||mi- ne Do- mi-|ni!|||||
V:2
 z2 F2 A2 | G2 F2 E2 | F2 F2 z2 | z6 | z2 F2 A2 | G2 F2 E2 | F2 F2 z2 | z2 z2 G2 | (G^F) F2 z2 | %9
w: Be- ne-|di- ctus qui|ve- nit,||be- ne-|di- ctus qui|ve- nit,|qui|ve\- * nit|
[M:3/4] z2 z2 =F2 | F3 F (E2- | EF) D3 D | E4 z2 | z6 | z6 | z6 | z2 z2 E2 | (FEFGAF | D2 D2 D2 | %19
w: in|no- mi- ne|* * Do- mi-|ni!||||qui|ve\- * * * * *|* nit, qui|
 (G^FGABG | E2) E2 E2 | A2 G2 ^F2 | G2 =F2 E2 | FEFGFG | FEFGFG | FEFGFG | E2 FG A2) | FG E3 E | %28
w: ve\- * * * * *|* nit, qui|ve- nit, qui|ve- nit in|no\- * * * * *||||mi- ne Do- mi-|
 F4 z2 | z6 | z6 | z6 | z6 |] %33
w: ni!|||||
V:3
 z2 F2 F2 | B2 B2 c2 | F2 F2 z2 | z6 | z2 F2 F2 | B2 B2 c2 | F2 F2 z2 | z2 z2 G2 | d2 d2 z2 | %9
w: Be- ne-|di- ctus qui|ve- nit,||be- ne-|di- ctus qui|ve- nit,|qui|ve- nit|
[M:3/4][K:treble-8] z2 z2 d2 | =B3 B c2 | (A2 F2) G2 | C4 z2 | z6 | z6 | z6 | z6 | z2 z2 F2 | %18
w: in|no- mi- ne|Do\- * mi-|ni!|||||qui|
 (BABcdB | G2) G2 G2 | (c=Bcdec | A2) (_Bc) d2 | G2 (AB) c2 | F4 z2 | d4 z2 | =B3 B B2 | %26
w: ve\- * * * * *|* nit, qui|ve\- * * * * *|* nit, * in|no- mi\- * ne|in,|in|no- mi- ne,|
 c3 _B (A2 | B2) c3 C | F4 z2 | z6 | z6 | z6 | z6 |] %33
w: no- mi- ne|* Do- mi-|ni!|||||
V:4
"^andante" z2 [FA]2 [Ac]2 | [GB]2 [FA]2 [EG]2 | [FA]2 [Af]2 [ca]2 | [Bg]2 [Af]2 [Ge]2 | %4
 [Af]2 [Af]2 [Ac]2 | [GB]2 [FA]2 [EG]2 | [FA]2 [FA]2 [Af]2 | [Af][Ge] [Ge]2 [GB]2 | %8
 [GB][^FA] [FA]2 [db]2 |[M:3/4] [db][ca] [ca]2 A2 | [Fd]3 [Fd] G2 | c4 =B2 | z2 g4- | g2 a4 | %14
 =b3 b c'2- | c'd' =b3 Tb | c'4 [EG]2 | [FA][EG][FA][GB][Ac][FA] | [DF]2 [DF]2 [DF]2 | %19
 [GB][^FA][GB][Ac][Bd][GB] | [EG]2 [EG]2 [EG]2 | [Ac]2 [GB]2 [^FA]2 | [GB]2 [=FA]2 [EG]2 | %23
 [FA][EG][FA][GB][FA][GB] | [FA][EG][FA][GB][FA][GB] | [F_A][EG][FA][GB][FA][GB] | %26
 [EG]2 [F=A][GB] [Ac]2 | [Bd][GB]{A} [EG]3 F | x6 | babc'd'b | g3 g a2- | ab g3 f | [Af]4 x2 |] %33
V:5
 x6 | x6 | x6 | x6 | x6 | x6 | x6 | x6 | x6 |[M:3/4] x6 | x4 E2- | EF D3 D | [Ec]4 z2 | z2 fefd | %14
 d2 g2 e2 | a2 d3 d | [ce]4 x2 | x6 | x6 | x6 | x6 | x6 | x6 | x6 | x6 | x6 | x6 | x6 | agabc'a | %29
 f2 d4 | [ce]3 [ce] [cf]2- | [cf][df] [cf]2 [Be]2 | x4 x2 |] %33
V:6
 F,4 F,2 | B,2 z2 C,2 | F,2 F,2 F,2 | B,4 C2 | F,4 F,2 | B,4 C2 | F,2 A,2 F,2 | C2 C2 G,2 | %8
 D4 B,2 |[M:3/4] =F2 F2 D2 | =B,4 C2 | A,2 F,2 G,2 | C,2 E,2 C,2 | F,2 A,2 F,2 | G,2 E,2 A,2 | %15
 F,2 G,2 G,,2 | C,2 E,2 C,2 | F,4 F,2 | (B,A,B,CDB,) | G,2 G,2 G,2 | (C=B,CDEC) | A,2 (_B,C) D2 | %22
 G,2 (A,B,) C2 | F,4 z2 | D4 z2 | =B,3 B, B,2 | C3 _B, A,2 | B,2 C2 C,2 | F,4 A,2 | D,2 G,2 B,2 | %30
 C,2 C2 A,2 | B,2 C2 C,2 | F,4 x2 |] %33

